{L}
SETPC 4 SETPOS[90 80] CLEAN REPEAT 36[RT 5 FD 2 RT 5]
REPEAT 9[RT 40 PU SETPOS[100 80] FD 25 PD BK 10]
SETPC 5 PU HOME PD
RT 180 FD 119 RT 90 FD 280 RT 90 FD 119
RT 45 REPEAT 20[FD 10 RT 90 FD 10 LT 90]
FILL BK 50
SETPC 1 REPEAT 40[FD 1 RT 3] RT 90
REPEAT 40[FD 1 RT 3] HT
